src/static/icons/vkontakte.svg

<svg width="24" height="24" viewBox="0 0 24 24" xmlns="http://www.w3.org/2000/svg">
<path fill-rule="evenodd" clip-rule="evenodd" d="M19.5549 8.5884C19.6579 8.24951 19.5549 8 19.0614 8H17.4322C17.0175 8 16.8264 8.21537 16.7227 8.45309C16.7227 8.45309 15.8941 10.4368 14.7204 11.7253C14.3406 12.0989 14.168 12.2175 13.9607 12.2175C13.8571 12.2175 13.7013 12.0989 13.7013 11.7594V8.5884C13.7013 8.18124 13.5871 8 13.242 8H10.6798C10.421 8 10.2652 8.18869 10.2652 8.36806C10.2652 8.7535 10.8524 8.84288 10.9126 9.92782V12.2852C10.9126 12.8022 10.8176 12.8959 10.6103 12.8959C10.0579 12.8959 8.71413 10.9029 7.91656 8.62254C7.76201 8.17875 7.6056 8 7.18913 8H5.55861C5.0931 8 5 8.21537 5 8.45309C5 8.8764 5.5524 10.9792 7.5727 13.7605C8.91957 15.6598 10.8157 16.6895 12.5431 16.6895C13.579 16.6895 13.7069 16.4611 13.7069 16.0669V14.6313C13.7069 14.1739 13.8049 14.0826 14.1333 14.0826C14.3753 14.0826 14.7893 14.2018 15.7563 15.1173C16.8611 16.2029 17.043 16.6895 17.6649 16.6895H19.2942C19.7597 16.6895 19.9931 16.4611 19.859 16.0092C19.7113 15.5598 19.1837 14.9075 18.4842 14.1335C18.1043 13.6928 17.5346 13.218 17.3614 12.9803C17.12 12.6756 17.1888 12.5396 17.3614 12.2684C17.3614 12.2684 19.3476 9.52128 19.5542 8.5884H19.5549Z"/>
</svg>

<svg width="24" height="24" xmlns="http://www.w3.org/2000/svg"><path fill-rule="evenodd" clip-rule="evenodd" d="M19.555 8.588c.103-.338 0-.588-.494-.588h-1.629c-.415 0-.606.215-.71.453 0 0-.828 1.984-2.002 3.272-.38.374-.552.492-.76.492-.103 0-.259-.118-.259-.458V8.59c0-.408-.114-.589-.459-.589H10.68c-.259 0-.415.189-.415.368 0 .386.587.475.648 1.56v2.357c0 .517-.095.61-.303.61-.552 0-1.896-1.992-2.693-4.272C7.762 8.179 7.606 8 7.189 8H5.56C5.093 8 5 8.215 5 8.453c0 .423.552 2.526 2.573 5.308 1.347 1.899 3.243 2.928 4.97 2.928 1.036 0 1.164-.228 1.164-.622V14.63c0-.457.098-.548.426-.548.242 0 .656.119 1.623 1.034 1.105 1.086 1.287 1.572 1.909 1.572h1.63c.465 0 .698-.228.564-.68-.148-.45-.675-1.101-1.375-1.876-.38-.44-.95-.915-1.123-1.153-.241-.304-.172-.44 0-.712 0 0 1.987-2.747 2.193-3.68z"/></svg>
